X:90
T:Banquet. RHu. 090
S:R.Hughes MS,1823,Whitchurch,Shrops.
A:Whitchurch, Shropshire
Z:Neil Brookes 2006
M:6/8
L:1/8
Q:3/8=120
R:Jig
K:D
F/G/|ABA AFD|d>ed c>BA|afd afd|cee e2 F/G/|!
ABA AFD|d>ed c>BA|afd gec|dddd2::!
f/e/|dfa dfa|ceg ceg|dcd Bed|cAAA2 G/F/|!
GBe GBe|FAd FAd|GFG EAG|FDDD2:|

